!!!SOCIAL_FUNCTION:	songs used in the treatment of the sick
!!!PDT:	1929
!!!OTL: No_91_The_Dawn_Approaches.krn
!!!REG: Southwest
!!!LANG: Non-Tone
!!!LING_GROUP: Uto-Aztecan
**kern
*staff1
=1-
*clefF4
*k[b-e-a-d-]
*M2/4
4A-\
8B-\L
8A-\J
=2
4A-\
8F\L
8E-\J
=3
4E-\
8E-\L
8A-\J
=4
4A-\
4A-\
=5
8A-\L
8F\J
8A-\L
8A-\J
=6||
*M3/4
4A-\
8F\L
8E-\J
4E-\
=7||
*M2/4
4A-\
8F\L
8E-\J
=8
4E-\
8C/
8r
=9
8F\L
8E-\J
8F\L
8E-\J
=10
4E-\
4C/
=11||
*M3/4
8E-\L
8E-\J
4E-\
4C/
=12||
*M2/4
8E-\L
8E-\J
4E-\
=13||
*M3/4
8E-\L
8E-\J
4E-\
4r
=14
=
*M2/4
4r
4E-\
=15
4c\
8c\L
8B-\J
=16
4A-\
4A-\
=17
8B-\L
8A-\J
4A-\
=18||
*M3/4
8F\L
8E-\J
4E-\
8A-\L
8A-\J
=19||
*M2/4
4A-\
4A-\
=20
8A-\L
8F\J
8A-\L
8A-\J
=21||
*M3/4
4A-\
8F\L
8E-\J
4E-\
=22||
*M2/4
4A-\
8F\L
8E-\J
=23
4E-\
8C/
8r
=24
8F\L
8E-\J
8F\L
8E-\J
=25
4E-\
4C/
=26||
*M3/4
8E-\L
8E-\J
4E-\
4C/
=27||
*M2/4
8E-\L
8E-\J
4E-\
=28
8E-\L
8E-\J
4E-\
==:|!
*-
